Sources/FrostedUI/Resources/Icons.xcassets/arrowFatDown24.imageset/arrow-fat-down-24.svg

<svg width="24" height="24" viewBox="0 0 24 24" fill="none" xmlns="http://www.w3.org/2000/svg" data-fui-icon="true">
  <path
    d="M14.2496 2C15.2161 2.00006 15.9996 2.78355 15.9996 3.75V13H18.6598C19.729 13.0002 20.3043 14.2553 19.6071 15.0654L13.3258 22.3594C12.6277 23.1698 11.3726 23.1699 10.6744 22.3594L4.39319 15.0654C3.69573 14.2552 4.27119 13 5.34045 13H7.99963V3.75C7.99963 2.78364 8.78333 2.00023 9.74963 2H14.2496ZM9.74963 3.5C9.61175 3.50023 9.49963 3.61207 9.49963 3.75V13.75C9.49963 14.1642 9.1638 14.4999 8.74963 14.5H5.88538L11.8102 21.3809H11.8112C11.9108 21.4961 12.0893 21.4963 12.1891 21.3809L18.1149 14.5H15.2496C14.8356 14.4998 14.4996 14.1641 14.4996 13.75V3.75C14.4996 3.61196 14.3877 3.50006 14.2496 3.5H9.74963Z"
    fill="currentColor"
  />
</svg>

<svg xmlns="http://www.w3.org/2000/svg" width="24" height="24" fill="none" data-fui-icon="true" viewBox="0 0 24 24"><path fill="currentColor" d="M14.25 2c.966 0 1.75.784 1.75 1.75V13h2.66c1.069 0 1.644 1.255.947 2.065l-6.281 7.294a1.75 1.75 0 0 1-2.652 0l-6.28-7.294C3.695 14.255 4.27 13 5.34 13H8V3.75C8 2.784 8.783 2 9.75 2zm-4.5 1.5a.25.25 0 0 0-.25.25v10a.75.75 0 0 1-.75.75H5.885l5.925 6.88h.001a.25.25 0 0 0 .378 0l5.926-6.88H15.25a.75.75 0 0 1-.75-.75v-10a.25.25 0 0 0-.25-.25z"/></svg>
